X: 4942
T: Breakout
R: jig
M: 6/8
K: Edorian
E2 B BAB|dBA BAB|E2 B BAB|dAB d2 B|
efg fed|efe dBA|BeB dBe|cAA A3|
E2 B BAB|dBA BAB|E2 B BAB|dAB d2 B|
efg fed|efe dBA|Bed BAd|BEE E3||
|:F2 B BAB|d3 dcB|c3 cdc|BcB FAB|
F2 B BAB|d3 dcB|c3 cBA|e3 e3:|
g2 g gfe|f2 d2 A2|~g3 gfg|~a3 a2 f|
g2 g gfe|f2 d2 A2|~e3 edc|~A3 A2 f|
g2 g gfe|f2 d2 A2|~g3 gfg|~a3 a2 f|
g2 g gfg|a2 f2 a2|b2 b bab|~b3 b2 F||

